X: 18837
T: Imp In The Quarry, The
R: jig
M: 6/8
K: Edorian
EFE BcB|GAG dcB|AdA eAA|GB/c/d FED|
EFE B2 B|GAG d2 B|eAc dBG|FED E2:|
eBe egf|dcd d2 B|AdA eAA|GBd f/g/af|
eBe e/f/ge|dcd fga|1 eac dBG|FED E2:|2 gBe fAd|eGB A2||

